configs/network-logos/shimmer.svg

<svg width="118" height="24" viewBox="0 0 118 24" fill="none" xmlns="http://www.w3.org/2000/svg">
<g id="logo_shimmer">
<g id="Group 189">
<path id="Union" fill-rule="evenodd" clip-rule="evenodd" d="M2.62603 4.52701C6.06182 1.09242 11.5584 1.16847 14.9029 4.69682L12.7293 6.8696C10.559 4.59374 7.00311 4.54879 4.77884 6.7723C2.55457 8.99577 2.5026 12.6473 4.65953 14.9366L2.46078 17.1345C-0.883736 13.6062 -0.809758 7.96161 2.62603 4.52701ZM12.5738 19.473C9.138 22.9076 3.6415 22.8316 0.29699 19.3033L2.47073 17.1303C4.64108 19.4062 8.19696 19.4511 10.4212 17.2276C12.6455 15.0041 12.6975 11.3526 10.5405 9.06333L12.7391 6.86557C16.0836 10.3939 16.0095 16.0384 12.5738 19.473Z" fill="#00E0CA"/>
<path id="Union_2" fill-rule="evenodd" clip-rule="evenodd" d="M33.9347 18.3707H36.0708V12.1753C36.0708 11.4468 36.2718 10.8922 36.6739 10.5112C37.069 10.1235 37.5735 9.92976 38.1865 9.92976C38.8 9.92976 39.3007 10.1235 39.6892 10.5112C40.0843 10.8922 40.282 11.4468 40.282 12.1753V18.3707H42.418V11.4535C42.3841 10.2639 42.006 9.36165 41.2835 8.7468C40.5545 8.13861 39.7503 7.83454 38.8714 7.83454C37.7336 7.83454 36.8134 8.24558 36.1116 9.06761H36.0708V3.75439H33.9347V18.3707ZM24.8222 15.1928L23.33 16.6264C24.7132 17.8695 26.2702 18.491 28.0009 18.491C29.2751 18.4777 30.3211 18.1903 31.1387 17.6289C31.9632 17.0809 32.3823 16.3023 32.3959 15.2931C32.3959 14.4309 32.1677 13.7192 31.7111 13.1578C31.2205 12.583 30.4233 12.2555 29.3194 12.1753L27.5614 12.045C27.0436 11.9915 26.6824 11.8679 26.478 11.6741C26.2531 11.5003 26.1475 11.2965 26.1612 11.0626C26.1612 10.695 26.3009 10.3943 26.5802 10.1603C26.846 9.9264 27.3127 9.80945 27.9805 9.80945C28.5665 9.80945 29.0843 9.893 29.5341 10.0601C29.9906 10.2472 30.4233 10.4845 30.8321 10.7718L32.1506 9.25808C31.6328 8.817 31.0468 8.4661 30.3926 8.20546C30.0519 8.08515 29.6874 7.99161 29.299 7.92477C28.9106 7.86463 28.4711 7.83454 27.9805 7.83454C26.8494 7.83454 25.9159 8.10185 25.18 8.63652C24.4236 9.17118 24.0386 9.97319 24.025 11.0425C24.0386 11.9314 24.3316 12.6231 24.904 13.1177C25.4627 13.6256 26.1884 13.9197 27.081 13.9999L28.9617 14.1603C29.3569 14.1736 29.6737 14.2572 29.9122 14.4109C30.1439 14.5579 30.2597 14.8185 30.2597 15.1928C30.2597 15.6139 30.0655 15.9414 29.6772 16.1753C29.2888 16.4092 28.7879 16.5261 28.1747 16.5261C26.8051 16.5261 25.6876 16.0817 24.8222 15.1928ZM46.7474 18.3707H44.611V7.96488H46.7474V18.3707ZM46.7474 5.84961H44.611V3.75439H46.7474V5.84961ZM49.0731 18.3708H51.2091V12.1754C51.2091 11.4469 51.4138 10.8922 51.8225 10.5112C52.211 10.1236 52.7118 9.92979 53.3248 9.92979C53.9383 9.92979 54.4423 10.1236 54.8378 10.5112C55.2263 10.8922 55.4203 11.4469 55.4203 12.1754V18.3708H57.5563V12.1754C57.5563 11.4469 57.7573 10.8922 58.1594 10.5112C58.5549 10.1236 59.059 9.92979 59.672 9.92979C60.2855 9.92979 60.7862 10.1236 61.1747 10.5112C61.5632 10.8922 61.7572 11.4469 61.7572 12.1754V18.3708H63.8936V11.4536C63.8663 10.2639 63.4915 9.36168 62.7691 8.74683C62.04 8.13865 61.2358 7.83458 60.3569 7.83458C58.9603 7.82119 57.8461 8.27566 57.0147 9.19798C56.6468 8.79698 56.2414 8.46613 55.7985 8.2055C55.3489 7.97159 54.7561 7.84792 54.02 7.83458C52.8753 7.83458 51.9522 8.24561 51.2504 9.06764H51.2091V7.96492H49.0731V18.3708ZM68.4272 18.3708H66.2909V7.96492H68.4272V9.06764H68.4681C69.1699 8.24561 70.093 7.83458 71.2378 7.83458C71.9738 7.84792 72.5667 7.97159 73.0162 8.2055C73.4592 8.46613 73.8646 8.79698 74.2324 9.19798C75.0638 8.27566 76.1781 7.82119 77.5747 7.83458C78.4536 7.83458 79.2577 8.13865 79.9868 8.74683C80.7092 9.36168 81.0841 10.2639 81.1113 11.4536V18.3708H78.975V12.1754C78.975 11.4469 78.7809 10.8922 78.3925 10.5112C78.004 10.1236 77.5032 9.92979 76.8898 9.92979C76.2767 9.92979 75.7727 10.1236 75.3772 10.5112C74.9751 10.8922 74.774 11.4469 74.774 12.1754V18.3708H72.6381V12.1754C72.6381 11.4469 72.444 10.8922 72.0556 10.5112C71.6601 10.1236 71.156 9.92979 70.5426 9.92979C69.9295 9.92979 69.4288 10.1236 69.0403 10.5112C68.6316 10.8922 68.4272 11.4469 68.4272 12.1754V18.3708ZM91.6137 13.9598V12.2355C91.6001 10.8654 91.1674 9.78939 90.3158 9.00748C89.4777 8.23887 88.4523 7.84789 87.2394 7.83454C86.7349 7.83454 86.2238 7.92477 85.7062 8.10521C85.1814 8.28566 84.7079 8.57974 84.2856 8.98742C83.8699 9.38842 83.5293 9.93643 83.2635 10.6315C82.9976 11.3132 82.8647 12.1687 82.8647 13.1979C82.8647 14.2672 83.0182 15.136 83.3246 15.8044C83.604 16.4994 83.9686 17.0407 84.4185 17.4284C84.6501 17.6155 84.8987 17.7726 85.1645 17.8996C85.4168 18.0466 85.6756 18.1635 85.9415 18.2504C86.4728 18.4108 87.0177 18.491 87.5767 18.491C89.0418 18.5044 90.3158 17.943 91.399 16.8068L89.8559 15.5136C89.1743 16.1886 88.4011 16.5261 87.5358 16.5261C86.7931 16.5261 86.1933 16.3056 85.7367 15.8645C85.2463 15.4301 85.001 14.7952 85.001 13.9598H91.6137ZM85.001 12.2355C85.0419 11.4268 85.2632 10.8153 85.6653 10.4009C86.074 10.0066 86.5987 9.80945 87.2394 9.80945C87.8797 9.80945 88.4044 10.0066 88.8135 10.4009C89.2288 10.8153 89.4505 11.4268 89.4777 12.2355H85.001ZM95.3604 18.3707H93.224V7.96488H95.3604V9.06761H95.4013C96.1031 8.24558 97.0229 7.83454 98.161 7.83454C99.0127 7.84789 99.7554 8.11524 100.389 8.63652L98.8356 10.451C98.3856 10.1035 97.9191 9.92976 97.4353 9.92976C96.8899 9.92976 96.4234 10.1035 96.035 10.451C95.599 10.7919 95.374 11.3433 95.3604 12.1052V18.3707Z" fill="#00121F"/>
</g>
</g>
</svg>

<svg xmlns="http://www.w3.org/2000/svg" fill="none" viewBox="0 0 118 24">
  <g fill-rule="evenodd" clip-rule="evenodd">
    <path fill="#00E0CA" d="M2.626 4.527a8.522 8.522 0 0 1 12.277.17L12.729 6.87a5.527 5.527 0 0 0-7.95-.098c-2.224 2.224-2.276 5.875-.12 8.165l-2.198 2.197c-3.345-3.528-3.27-9.172.165-12.607Zm9.948 14.946a8.522 8.522 0 0 1-12.277-.17l2.174-2.173a5.527 5.527 0 0 0 7.95.098c2.225-2.224 2.277-5.875.12-8.165l2.198-2.197c3.345 3.528 3.27 9.172-.165 12.607Z"/>
    <path fill="#00121F" d="M33.935 18.37h2.136v-6.195c0-.728.2-1.283.603-1.664.395-.387.9-.581 1.513-.581.613 0 1.114.194 1.502.581.395.381.593.936.593 1.664v6.196h2.136v-6.917c-.034-1.19-.412-2.092-1.135-2.707-.729-.608-1.533-.912-2.412-.912-1.137 0-2.058.41-2.76 1.233h-.04V3.754h-2.136v14.617Zm-9.113-3.177-1.492 1.433c1.383 1.243 2.94 1.865 4.67 1.865 1.275-.013 2.321-.3 3.139-.862.824-.548 1.243-1.327 1.257-2.336 0-.862-.228-1.574-.685-2.135-.49-.575-1.288-.902-2.392-.983l-1.758-.13c-.517-.053-.879-.177-1.083-.37-.225-.175-.33-.379-.317-.612 0-.368.14-.669.42-.903.265-.234.732-.35 1.4-.35.585 0 1.103.083 1.553.25.457.187.89.425 1.298.712l1.319-1.514a6.265 6.265 0 0 0-1.758-1.053 6.685 6.685 0 0 0-1.094-.28 8.678 8.678 0 0 0-1.319-.09c-1.13 0-2.064.267-2.8.802-.756.534-1.141 1.336-1.155 2.405.014.89.307 1.581.879 2.076.559.508 1.284.802 2.177.882l1.88.16c.396.014.713.097.951.25.232.148.348.409.348.783 0 .42-.195.748-.583.982-.388.234-.89.351-1.502.351-1.37 0-2.487-.444-3.353-1.333Zm21.925 3.178h-2.136V7.965h2.136V18.37Zm0-12.521h-2.136V3.754h2.136V5.85Zm2.326 12.52h2.136v-6.195c0-.728.205-1.283.613-1.664.389-.387.89-.581 1.503-.581.613 0 1.117.194 1.513.581.388.381.582.936.582 1.664v6.196h2.136v-6.196c0-.728.201-1.283.603-1.664.396-.387.9-.581 1.513-.581.614 0 1.114.194 1.503.581.388.381.582.936.582 1.664v6.196h2.137v-6.917c-.028-1.19-.402-2.092-1.125-2.707-.729-.608-1.533-.912-2.412-.912-1.397-.014-2.51.44-3.342 1.363a5.288 5.288 0 0 0-1.217-.992c-.45-.234-1.042-.358-1.778-.371-1.145 0-2.068.41-2.77 1.233h-.04V7.965h-2.137V18.37Zm19.354 0h-2.136V7.966h2.136v1.103h.041c.702-.822 1.625-1.233 2.77-1.233.736.013 1.329.137 1.778.37.443.261.849.592 1.216.993.832-.922 1.946-1.377 3.343-1.363.879 0 1.683.304 2.412.912.722.615 1.097 1.517 1.124 2.707v6.917h-2.136v-6.196c0-.728-.194-1.283-.582-1.664-.389-.387-.89-.581-1.503-.581-.613 0-1.117.194-1.513.581-.402.381-.603.936-.603 1.664v6.196h-2.136v-6.196c0-.728-.194-1.283-.582-1.664-.396-.387-.9-.581-1.513-.581-.614 0-1.114.194-1.503.581-.408.381-.613.936-.613 1.664v6.196Zm23.187-4.41v-1.725c-.014-1.37-.447-2.446-1.298-3.228-.838-.768-1.864-1.16-3.077-1.172a4.65 4.65 0 0 0-1.533.27c-.525.18-.998.475-1.42.882-.416.401-.757.95-1.023 1.645-.265.681-.398 1.537-.398 2.566 0 1.07.153 1.938.46 2.606.279.695.644 1.237 1.093 1.624.232.188.48.345.746.472.253.147.512.264.778.35.53.16 1.076.241 1.635.241 1.465.013 2.739-.548 3.822-1.684l-1.543-1.293c-.682.675-1.455 1.012-2.32 1.012-.743 0-1.343-.22-1.8-.662-.49-.434-.735-1.069-.735-1.904h6.613ZM85 12.235c.04-.808.262-1.42.664-1.834.409-.394.934-.592 1.574-.592s1.165.198 1.575.592c.415.414.637 1.026.664 1.835H85Zm10.36 6.136h-2.137V7.965h2.136v1.103h.041c.702-.822 1.622-1.233 2.76-1.233.852.013 1.594.28 2.228.802l-1.553 1.814c-.45-.348-.917-.521-1.4-.521a2.03 2.03 0 0 0-1.401.521c-.436.34-.661.892-.675 1.654v6.266Z"/>
  </g>
</svg>
